X: 151
T: les Nains          F.
C: Ignatius Sancho 1775
%R: march
B: "Minuets Cotillons & Country Dances", 1775 p.15 #1
S: https://www.bl.uk/collection-items/minuets-cotillons-and-country-dances-by-ignatius-sancho#
Z: 2020 John Chambers <jc:trillian.mit.edu>
M: 2/4
L: 1/16
K: F
% - - - - - - - - - - - - - - - - - - - - - - - - - - - - -
V: 1 brace=2 % staves=2
V: 2 clef=bass middle=d
% - - - - - - - - - - - - - - - - - - - - - - - - - - - - -
[V:1] |: .c2.d2.e2.f2 | (c2BA) (c2BA) | .c2.d2.e2.f2 | g2ab {a}g4 :: c'2(c2d2e2) | (bagf) e2c2 | cc'cc' dc'dc' | baga f4 :|
[V:2] |: f4z4 | f4f4 | f4z4 | c4c4 :: c'4z4 | c4c4 | a4b4 | g2c'2 f4 :|
% - - - - - - - - - - - - - - - - - - - - - - - - - - - - -
%%begintext align
%% All round, back again, The first four Right and
%% Left, the other four do the same.
%%endtext
